X: 15
M:3/4
L:1/8
K:Bb
"Moderato"G4 ^F2|G2 A2 c2|d4 c2|{B}A4 d2|c4 AG|^F2 A3 G|^F3 E F2|D6|
g4 ^f2|g2 a2 b2|a4 gf|d4 d=e|f3 g fg|f2 d2 f2|c4 {B}A2|^F4 {E}D2|

